public/buzzer-logo.svg

<svg width="195" height="49" viewBox="0 0 195 49" fill="none" xmlns="http://www.w3.org/2000/svg">
<path d="M81.74 24.112C83.156 24.376 84.32 25.084 85.232 26.236C86.144 27.388 86.6 28.708 86.6 30.196C86.6 31.54 86.264 32.728 85.592 33.76C84.944 34.768 83.996 35.56 82.748 36.136C81.5 36.712 80.024 37 78.32 37H67.484V11.872H77.852C79.556 11.872 81.02 12.148 82.244 12.7C83.492 13.252 84.428 14.02 85.052 15.004C85.7 15.988 86.024 17.104 86.024 18.352C86.024 19.816 85.628 21.04 84.836 22.024C84.068 23.008 83.036 23.704 81.74 24.112ZM72.524 22.312H77.132C78.332 22.312 79.256 22.036 79.904 21.484C80.552 20.932 80.876 20.14 80.876 19.108C80.876 18.076 80.54 17.272 79.868 16.696C79.22 16.12 78.308 15.832 77.132 15.832H72.524V22.312ZM77.6 33.004C78.824 33.004 79.772 32.716 80.444 32.14C81.14 31.54 81.488 30.688 81.488 29.584C81.488 28.504 81.128 27.652 80.408 27.028C79.688 26.404 78.716 26.092 77.492 26.092H72.524V33.004H77.6ZM109.445 17.056V37H104.369V34.48C103.721 35.344 102.869 36.028 101.813 36.532C100.781 37.012 99.6528 37.252 98.4288 37.252C96.8688 37.252 95.4888 36.928 94.2888 36.28C93.0888 35.608 92.1408 34.636 91.4448 33.364C90.7728 32.068 90.4368 30.532 90.4368 28.756V17.056H95.4768V28.036C95.4768 29.62 95.8728 30.844 96.6648 31.708C97.4568 32.548 98.5368 32.968 99.9048 32.968C101.297 32.968 102.389 32.548 103.181 31.708C103.973 30.844 104.369 29.62 104.369 28.036V17.056H109.445ZM119.026 32.86H127.918V37H113.302V32.932L122.014 21.196H113.338V17.056H127.81V21.124L119.026 32.86ZM136.428 32.86H145.32V37H130.704V32.932L139.416 21.196H130.74V17.056H145.212V21.124L136.428 32.86ZM167.762 26.56C167.762 27.232 167.714 27.856 167.618 28.432H153.038C153.134 29.896 153.626 31.048 154.514 31.888C155.402 32.728 156.506 33.148 157.826 33.148C159.698 33.148 161.03 32.344 161.822 30.736H167.258C166.682 32.656 165.578 34.24 163.946 35.488C162.314 36.712 160.31 37.324 157.934 37.324C156.014 37.324 154.286 36.904 152.75 36.064C151.238 35.2 150.05 33.988 149.186 32.428C148.346 30.868 147.926 29.068 147.926 27.028C147.926 24.964 148.346 23.152 149.186 21.592C150.026 20.032 151.202 18.832 152.714 17.992C154.226 17.152 155.966 16.732 157.934 16.732C159.83 16.732 161.522 17.14 163.01 17.956C164.522 18.772 165.686 19.924 166.502 21.412C167.342 22.9 167.762 24.616 167.762 26.56ZM162.542 25.372C162.518 23.98 162.05 22.888 161.138 22.096C160.25 21.28 159.134 20.872 157.79 20.872C156.518 20.872 155.45 21.28 154.586 22.096C153.722 22.888 153.206 23.98 153.038 25.372H162.542ZM176.481 20.584C177.129 19.384 177.969 18.448 179.001 17.776C180.057 17.104 181.257 16.768 182.601 16.768V22.06H181.269C179.685 22.06 178.485 22.432 177.669 23.176C176.877 23.92 176.481 25.216 176.481 27.064V37H171.441V17.056H176.481V20.584Z" fill="black"/>
<path fill-rule="evenodd" clip-rule="evenodd" d="M12.6113 25.8232L11.9805 27.4886C11.3436 28.4794 11 29.5347 11 30.6296C11 36.357 20.402 41 32 41C43.598 41 53 36.357 53 30.6296C53 29.5347 52.6564 28.4794 52.0194 27.4886L51.3887 25.8232C49.269 30.3667 41.3925 33.7408 32 33.7408C22.6075 33.7408 14.731 30.3667 12.6113 25.8232Z" fill="#122062"/>
<ellipse cx="32" cy="22.3333" rx="17.85" ry="9.33333" fill="#F3AEB9"/>
</svg>

<?xml version="1.0" encoding="utf-8"?>
<!-- Generator: Adobe Illustrator 24.1.2, SVG Export Plug-In . SVG Version: 6.00 Build 0)  -->
<svg version="1.1" id="Layer_1" xmlns="http://www.w3.org/2000/svg" xmlns:xlink="http://www.w3.org/1999/xlink" x="0px" y="0px"
	 viewBox="0 0 195 49" style="enable-background:new 0 0 195 49;" xml:space="preserve">
<style type="text/css">
	.st0{fill:#0F4C82;}
	.st1{fill-rule:evenodd;clip-rule:evenodd;fill:#0F4C82;}
	.st2{fill:#F26B5B;}
</style>
<path class="st0" d="M81.7,24.1c1.4,0.3,2.6,1,3.5,2.1c0.9,1.2,1.4,2.5,1.4,4c0,1.3-0.3,2.5-1,3.6c-0.6,1-1.6,1.8-2.8,2.4
	S80,37,78.3,37H67.5V11.9h10.4c1.7,0,3.2,0.3,4.4,0.8c1.2,0.6,2.2,1.3,2.8,2.3c0.6,1,1,2.1,1,3.3c0,1.5-0.4,2.7-1.2,3.7
	C84.1,23,83,23.7,81.7,24.1z M72.5,22.3h4.6c1.2,0,2.1-0.3,2.8-0.8s1-1.3,1-2.4s-0.3-1.8-1-2.4c-0.6-0.6-1.6-0.9-2.7-0.9h-4.6V22.3z
	 M77.6,33c1.2,0,2.2-0.3,2.8-0.9c0.7-0.6,1-1.5,1-2.6c0-1.1-0.4-1.9-1.1-2.6c-0.7-0.6-1.7-0.9-2.9-0.9h-5V33H77.6z M109.4,17.1V37
	h-5.1v-2.5c-0.6,0.9-1.5,1.5-2.6,2.1c-1,0.5-2.2,0.7-3.4,0.7c-1.6,0-2.9-0.3-4.1-1c-1.2-0.7-2.1-1.6-2.8-2.9c-0.7-1.3-1-2.8-1-4.6
	V17.1h5v11c0,1.6,0.4,2.8,1.2,3.7c0.8,0.8,1.9,1.3,3.2,1.3c1.4,0,2.5-0.4,3.3-1.3c0.8-0.9,1.2-2.1,1.2-3.7v-11H109.4z M119,32.9h8.9
	V37h-14.6v-4.1l8.7-11.7h-8.7v-4.1h14.5v4.1L119,32.9z M136.4,32.9h8.9V37h-14.6v-4.1l8.7-11.7h-8.7v-4.1h14.5v4.1L136.4,32.9z
	 M167.8,26.6c0,0.7,0,1.3-0.1,1.9H153c0.1,1.5,0.6,2.6,1.5,3.5c0.9,0.8,2,1.3,3.3,1.3c1.9,0,3.2-0.8,4-2.4h5.4
	c-0.6,1.9-1.7,3.5-3.3,4.8c-1.6,1.2-3.6,1.8-6,1.8c-1.9,0-3.6-0.4-5.2-1.3c-1.5-0.9-2.7-2.1-3.6-3.6c-0.8-1.6-1.3-3.4-1.3-5.4
	c0-2.1,0.4-3.9,1.3-5.4c0.8-1.6,2-2.8,3.5-3.6c1.5-0.8,3.3-1.3,5.2-1.3c1.9,0,3.6,0.4,5.1,1.2c1.5,0.8,2.7,2,3.5,3.5
	C167.3,22.9,167.8,24.6,167.8,26.6z M162.5,25.4c0-1.4-0.5-2.5-1.4-3.3c-0.9-0.8-2-1.2-3.3-1.2c-1.3,0-2.3,0.4-3.2,1.2
	c-0.9,0.8-1.4,1.9-1.5,3.3H162.5z M176.5,20.6c0.6-1.2,1.5-2.1,2.5-2.8c1.1-0.7,2.3-1,3.6-1v5.3h-1.3c-1.6,0-2.8,0.4-3.6,1.1
	c-0.8,0.7-1.2,2-1.2,3.9V37h-5V17.1h5V20.6z"/>
<path class="st1" d="M12.6,25.8L12,27.5c-0.6,1-1,2-1,3.1C11,36.4,20.4,41,32,41s21-4.6,21-10.4c0-1.1-0.3-2.2-1-3.1l-0.6-1.7
	c-2.1,4.5-10,7.9-19.4,7.9S14.7,30.4,12.6,25.8z"/>
<ellipse class="st2" cx="32" cy="22.3" rx="17.8" ry="9.3"/>
</svg>
